icons/mail-17.svg

<svg width="16" height="17" viewBox="0 0 16 17" fill="none" xmlns="http://www.w3.org/2000/svg">
<path fill-rule="evenodd" clip-rule="evenodd" d="M3.31257 3.70056C2.58771 3.70056 2.00009 4.28818 2.00009 5.01304V5.56486C1.99997 5.57162 1.99997 5.57839 2.00009 5.58514V11.3879C2.00009 12.1128 2.58771 12.7004 3.31257 12.7004H12.6874C13.4123 12.7004 13.9999 12.1128 13.9999 11.3879V5.58502C14 5.57835 14 5.57167 13.9999 5.56498V5.01304C13.9999 4.28818 13.4123 3.70056 12.6874 3.70056H3.31257ZM12.8749 5.25325V5.01304C12.8749 4.90949 12.791 4.82554 12.6874 4.82554H3.31257C3.20902 4.82554 3.12507 4.90949 3.12507 5.01304V5.25325L7.99999 8.11096L12.8749 5.25325ZM3.12507 6.55728V11.3879C3.12507 11.4915 3.20902 11.5754 3.31257 11.5754H12.6874C12.791 11.5754 12.8749 11.4915 12.8749 11.3879V6.55728L8.28445 9.24823C8.10879 9.35121 7.89119 9.35121 7.71553 9.24823L3.12507 6.55728Z" fill="#272431"/>
</svg>

<svg xmlns="http://www.w3.org/2000/svg" width="16" height="17" viewBox="0 0 16 17"><path fill-rule="evenodd" d="M3.313 3.7C2.588 3.7 2 4.289 2 5.014v6.375c0 .725.588 1.312 1.313 1.312h9.374c.725 0 1.313-.587 1.313-1.312V5.585a.67.67 0 000-.02v-.552c0-.725-.588-1.312-1.313-1.312H3.313zm9.562 1.553v-.24a.187.187 0 00-.188-.187H3.313a.188.188 0 00-.188.187v.24L8 8.111l4.875-2.858zm-9.75 1.304v4.83c0 .104.084.188.188.188h9.374a.187.187 0 00.188-.187v-4.83l-4.59 2.69a.562.562 0 01-.57 0l-4.59-2.69z"/></svg>
